X:1
T:Partition sans titre
C:Compositeur / Arrangeur
L:1/8
M:4/4
I:linebreak $
K:G
V:1 treble nm="Violon" snm="Vln."
V:1
"G" GBAG BGDG | BGAF G2 DD | GBAG BGDG | BGAF G2 DD | GBAG BDDD | GBAG BGAB |"C" c3 c"D" AFAF | %7
 DFFF DEFG | AB"C" c2 BcAF |1[M:2/4]"G" G2 DD :|2"G" GA Bc |:[M:4/4]"D" d3 d"G" BGBd | %12
 g3 g"C" ecec |"D" A2 AB"C" c3 c |"D" Bced"C" cBAc |"G" BdBG GABc |"D" d3 d"G" BGBd | %17
 g3 g"C" ecec |"D" A2 AB"C" c2 cB | cedc"G" BdBG |1[M:2/4] GA Bc :|2 G2 DD |] %22
